X: 232
T: Ha du sjitt n\aaa gammal Kjerring, pols
S: Maggie McRae via google drive
O: Norway
R: pols
M: 3/4
L: 1/8
K: D
([AA,] |:\
[dD])>(e fd) f>a | a>(b af) g>g |\
(g>f) (f>d) d>f | f>(g fe) e>c |
d>(e fd) f>a | a>(b af) g>g |\
(g>f) (fd) f>a |[1 (a^g) e7/2 (A :|
[2 (a^g) e4 |:\
z>u[fd] v[d2-F2] [dF]>u[eG] | ([dF][cE]) [d2F2] [fd]>[af] |\
([af]>[^ge]) ([ec][fd])  [dF]>[dF] | ([dF]>[cE]) [c2A2E4-] |
[cAE]>u[fd] v[d2-F2] [dF]>u[eG] | ([dF]>[cE]) [d2F2] [fd]>[af] |\
([af]>[^ge]) ([ec][fd]) [dF]>[dF] |[1 ([dF][cE]) [d4F4] :|[2 ([dF][cE]) [d3F3] |]
